images/logo.svg

<?xml version="1.0" encoding="UTF-8" standalone="no"?>
<svg
   xmlns:sketch="http://www.bohemiancoding.com/sketch/ns"
   xmlns:dc="http://purl.org/dc/elements/1.1/"
   xmlns:cc="http://creativecommons.org/ns#"
   xmlns:rdf="http://www.w3.org/1999/02/22-rdf-syntax-ns#"
   xmlns:svg="http://www.w3.org/2000/svg"
   xmlns="http://www.w3.org/2000/svg"
   xmlns:xlink="http://www.w3.org/1999/xlink"
   xmlns:sodipodi="http://sodipodi.sourceforge.net/DTD/sodipodi-0.dtd"
   xmlns:inkscape="http://www.inkscape.org/namespaces/inkscape"
   width="230"
   height="54"
   viewBox="0 0 230 54"
   version="1.1"
   id="svg2"
   inkscape:version="0.48.5 r10040"
   sodipodi:docname="logo.svg">
  <metadata
     id="metadata53">
    <rdf:RDF>
      <cc:Work
         rdf:about="">
        <dc:format>image/svg+xml</dc:format>
        <dc:type
           rdf:resource="http://purl.org/dc/dcmitype/StillImage" />
      </cc:Work>
    </rdf:RDF>
  </metadata>
  <sodipodi:namedview
     pagecolor="#ffffff"
     bordercolor="#666666"
     borderopacity="1"
     objecttolerance="10"
     gridtolerance="10"
     guidetolerance="10"
     inkscape:pageopacity="0"
     inkscape:pageshadow="2"
     inkscape:window-width="1184"
     inkscape:window-height="537"
     id="namedview51"
     showgrid="false"
     inkscape:zoom="2.1826087"
     inkscape:cx="-3.036985"
     inkscape:cy="28.141378"
     inkscape:window-x="0"
     inkscape:window-y="0"
     inkscape:window-maximized="0"
     inkscape:current-layer="svg2" />
  <!-- Generator: Sketch 3.1 (8751) - http://www.bohemiancoding.com/sketch -->
  <title
     id="title4">logo</title>
  <desc
     id="desc6">Created with Sketch.</desc>
  <defs
     id="defs8">
    <rect
       id="path-1"
       x="0"
       y="0"
       width="33.833"
       height="33.833" />
  </defs>
  <g
     id="Page-1"
     sketch:type="MSPage"
     style="fill:none;stroke:none"
     transform="scale(1.4752195,1.4544279)">
    <g
       id="logo"
       sketch:type="MSLayerGroup">
      <g
         id="Group">
        <g
           id="SVGID_1_-link"
           sketch:type="MSShapeGroup"
           style="fill:#103184">
          <rect
             id="SVGID_1_"
             x="0"
             y="0"
             width="33.833"
             height="33.833" />
        </g>
        <g
           id="Clipped">
          <mask
             id="mask-2"
             sketch:name="SVGID_1_"
             fill="white">
            <use
               xlink:href="#path-1"
               id="use18"
               x="0"
               y="0"
               width="156"
               height="38" />
          </mask>
          <g
             id="g20" />
          <g
             id="g22"
             mask="url(#mask-2)"
             sketch:type="MSShapeGroup">
            <path
               d="M 20.971,16.706 33.837,0 l -1.9,0 -12.91,16.706 1.944,0 z"
               id="Shape"
               inkscape:connector-curvature="0"
               style="fill:#ff1821" />
            <path
               d="m 25.854,24.018 c 0.59,1.649 1.805,5.942 2.287,6.284 l -3.188,0 c 0,0 -0.012,-0.635 -0.15,-1.126 -0.138,-0.489 -1.291,-4.202 -1.291,-4.202 l -5.067,0 -0.797,1.13 c 0,0 0.958,2.995 1.017,3.142 0.104,0.264 0.561,1.057 0.561,1.057 l -3.057,0 c 0,0 -0.08,-0.457 -0.109,-0.648 -0.024,-0.152 -0.29,-0.995 -0.29,-0.995 0,0 -0.692,0.759 -0.882,1.11 -0.19,0.352 -0.275,0.533 -0.275,0.533 l -2.393,0 c 0,0 -0.08,-0.457 -0.109,-0.648 -0.023,-0.152 -0.316,-1.063 -0.316,-1.063 0,0 -0.67,0.813 -0.859,1.164 -0.19,0.352 -0.271,0.547 -0.271,0.547 l -2.367,0 c 0,0 0.668,-0.635 0.901,-0.909 0.394,-0.463 1.862,-2.382 1.862,-2.382 l -0.588,-2.037 -5.029,0 c 0,0 -2.867,3.768 -2.98,3.884 -0.113,0.114 -0.949,1.315 -0.969,1.444 l -1.491,0 0,-0.948 c 0.028,-0.03 0.05,-0.05 0.06,-0.058 0.045,-0.033 2.173,-2.674 4.128,-5.278 1.756,-2.271 3.403,-4.479 3.549,-4.69 0.35,-0.509 0.854,-1.607 0.854,-1.607 l 2.6,0 c 0,0 0.08,1.011 0.156,1.256 0.067,0.216 1.65,5.413 1.688,5.469 l 0.876,-1.121 -1.497,-4.608 c 0,0 -0.351,-0.867 -0.465,-0.997 l 3.036,0 c 0,0 -0.023,0.446 0.1,0.825 0.123,0.381 0.774,2.73 0.774,2.73 0,0 2.071,-2.596 2.192,-2.783 0.228,-0.313 0.256,-0.772 0.256,-0.772 l 2.529,0 c 0,0 -0.463,0.338 -1.273,1.366 -0.273,0.345 -2.945,3.741 -2.945,3.741 0,0 0.233,0.795 0.347,1.19 0.03,0.114 0.053,0.189 0.053,0.198 0,0.004 0.059,-0.068 0.159,-0.198 0.689,-0.873 3.825,-4.986 4.016,-5.338 0.153,-0.284 0.379,-0.607 0.512,-0.959 l 2.468,0 c 0,0 0.058,0.737 0.133,0.94 l 1.544,5.357 0,0 z m -3.755,-3.892 c -0.364,0.78 -2.497,3.377 -2.497,3.377 l 3.378,0 c 0,0 -0.654,-2.018 -0.769,-2.472 -0.091,-0.362 -0.066,-0.828 -0.066,-0.884 0,-0.04 -0.007,-0.107 -0.046,-0.021 l 0,0 z m -12.984,0 C 8.753,20.906 6.62,23.503 6.62,23.503 l 3.379,0 c 0,0 -0.655,-2.018 -0.77,-2.472 -0.09,-0.362 -0.066,-0.828 -0.066,-0.884 0,-0.04 -0.008,-0.107 -0.048,-0.021 l 0,0 z m 5.087,7.875 0.93,-1.277 c -0.086,-0.092 -0.609,-1.682 -0.609,-1.682 l -0.899,1.166 0.578,1.793 0,0 z"
               id="path25"
               inkscape:connector-curvature="0"
               style="fill:#ffffff" />
          </g>
        </g>
      </g>
      <path
         d="m 0.004,36.472 155.905,0 0,0.656 -155.905,0 0,-0.656 0,0 z"
         id="path27"
         sketch:type="MSShapeGroup"
         inkscape:connector-curvature="0"
         style="fill:#ff1821" />
      <g
         id="g29"
         transform="translate(37,14)"
         sketch:type="MSShapeGroup"
         style="fill:#103184">
        <path
           d="m 12.785,16.303 -2.926,0 -0.626,-9.254 -5.102,9.254 -2.926,0 -1.402,-12.555 3.078,0 0.599,9.029 5.079,-9.029 3.076,0 0.625,9.003 4.828,-9.003 2.951,0 -7.254,12.555 0,0 z"
           id="path31"
           inkscape:connector-curvature="0" />
        <path
           d="m 22.264,16.303 -3.076,0 2.678,-12.555 3.05,0 -2.652,12.555 0,0 z m 2.953,-13.756 -3.151,0 0.575,-2.652 3.15,0 -0.574,2.652 0,0 z"
           id="path33"
           inkscape:connector-curvature="0" />
        <path
           d="m 38.173,9.201 -1.501,7.103 -3.077,0 1.502,-6.952 c 0.122,-0.576 0.274,-1.4 0.274,-2.052 0,-0.726 -0.326,-1.352 -1.326,-1.352 -1.576,0 -3.102,1.701 -3.951,3.304 -0.426,0.823 -0.701,1.85 -0.9,2.774 l -0.926,4.277 -3.076,0 2.675,-12.555 3.026,0 -0.474,2.227 c 0.699,-0.952 2.176,-2.602 4.8,-2.602 2.178,0 3.328,1.15 3.328,3.002 0,0.875 -0.175,1.825 -0.374,2.826 l 0,0 0,0 z"
           id="path35"
           inkscape:connector-curvature="0" />
        <path
           d="m 48.229,5.948 -2.854,0 -1.401,6.603 c -0.073,0.326 -0.15,0.805 -0.124,1.077 0.051,0.627 0.576,0.876 1.273,0.876 0.553,0 1.152,-0.125 1.628,-0.225 l -0.401,1.9 c -0.498,0.199 -1.55,0.375 -2.399,0.375 -2.052,0 -3.229,-0.852 -3.229,-2.502 0,-0.425 0.101,-1.176 0.228,-1.775 l 1.35,-6.329 -2.328,0 0.477,-2.2 2.326,0 0.826,-3.853 3.076,0 -0.824,3.853 2.877,0 -0.501,2.2 0,0 z"
           id="path37"
           inkscape:connector-curvature="0" />
        <path
           d="m 59.883,10.751 -8.153,0 c -0.054,0.3 -0.077,0.65 -0.077,0.949 0,1.752 1.152,2.602 3.102,2.602 1.553,0 3.002,-0.35 4.227,-0.825 l -0.499,2.302 c -0.497,0.324 -2.2,0.899 -4.377,0.899 -4.179,0 -5.752,-2.225 -5.752,-5.177 0,-4.152 2.799,-8.129 7.327,-8.129 2.877,0 4.854,1.351 4.854,4.252 -10e-4,1.2 -0.328,2.277 -0.652,3.127 l 0,0 0,0 z M 55.529,5.423 c -1.873,0 -3.076,1.853 -3.428,3.252 l 5.205,0 C 57.357,8.55 57.581,8.05 57.581,7.224 57.582,6.298 57.082,5.423 55.529,5.423 l 0,0 0,0 z"
           id="path39"
           inkscape:connector-curvature="0" />
        <path
           d="m 70.736,6.625 c -0.124,-0.026 -0.35,-0.076 -0.775,-0.076 -1.525,0 -3.024,1.326 -3.727,2.626 -0.523,0.976 -0.775,2.051 -0.975,3.027 l -0.876,4.101 -3.075,0 2.676,-12.555 3,0 -0.522,2.475 c 0.674,-1.125 2.023,-2.525 4.075,-2.525 0.426,0 0.701,0.023 0.799,0.05 l -0.6,2.877 0,0 z"
           id="path41"
           inkscape:connector-curvature="0" />
        <path
           d="m 80.09,5.948 -2.848,0 -1.402,6.603 c -0.074,0.326 -0.15,0.805 -0.125,1.077 0.051,0.627 0.575,0.876 1.275,0.876 0.551,0 1.149,-0.125 1.626,-0.225 l -0.399,1.9 c -0.5,0.199 -1.551,0.375 -2.401,0.375 -2.054,0 -3.226,-0.852 -3.226,-2.502 0,-0.425 0.099,-1.176 0.223,-1.775 l 1.352,-6.329 -2.325,0 0.476,-2.2 2.324,0 0.824,-3.853 3.079,0 -0.825,3.853 2.877,0 -0.505,2.2 0,0 z"
           id="path43"
           inkscape:connector-curvature="0" />
        <path
           d="m 93.021,9.201 -1.499,7.103 -3.075,0 1.498,-6.929 c 0.129,-0.574 0.276,-1.398 0.276,-2.05 0,-0.726 -0.325,-1.35 -1.325,-1.35 -1.579,0 -3.103,1.7 -3.951,3.302 -0.428,0.823 -0.701,1.85 -0.9,2.775 l -0.928,4.251 -3.075,0 3.452,-16.408 3.023,0 -1.247,6.08 c 0.7,-0.952 2.351,-2.602 4.774,-2.602 2.201,0 3.354,1.15 3.354,3.002 0,0.875 -0.175,1.825 -0.377,2.826 l 0,0 0,0 z"
           id="path45"
           inkscape:connector-curvature="0" />
        <path
           d="m 105.877,16.303 -3.025,0 0.477,-2.2 c -0.902,1.151 -2.252,2.575 -4.777,2.575 -2.201,0 -3.354,-1.126 -3.354,-3.001 0,-0.873 0.176,-1.826 0.375,-2.826 l 1.504,-7.103 3.074,0 -1.5,6.977 c -0.1,0.401 -0.273,1.327 -0.273,2.026 0,0.801 0.299,1.377 1.324,1.377 1.551,0 3.201,-1.677 3.979,-3.301 0.449,-0.952 0.699,-1.802 0.898,-2.777 l 0.9,-4.302 3.078,0 -2.68,12.555 0,0 z"
           id="path47"
           inkscape:connector-curvature="0" />
        <path
           d="m 118.26,6.625 c -0.125,-0.026 -0.352,-0.076 -0.777,-0.076 -1.523,0 -3.025,1.326 -3.725,2.626 -0.523,0.976 -0.775,2.051 -0.975,3.027 l -0.879,4.101 -3.072,0 2.676,-12.555 2.998,0 -0.523,2.475 c 0.676,-1.125 2.027,-2.525 4.078,-2.525 0.426,0 0.697,0.023 0.801,0.05 l -0.602,2.877 0,0 z"
           id="path49"
           inkscape:connector-curvature="0" />
      </g>
    </g>
  </g>
</svg>

<?xml version="1.0" encoding="UTF-8" standalone="no"?>
<svg width="156px" height="38px" viewBox="0 0 156 38" version="1.1" xmlns="http://www.w3.org/2000/svg" xmlns:xlink="http://www.w3.org/1999/xlink" xmlns:sketch="http://www.bohemiancoding.com/sketch/ns">
    <!-- Generator: Sketch 3.1 (8751) - http://www.bohemiancoding.com/sketch -->
    <title>logo</title>
    <desc>Created with Sketch.</desc>
    <defs>
        <rect id="path-1" x="0" y="0" width="33.833" height="33.833"></rect>
    </defs>
    <g id="Page-1" stroke="none" stroke-width="1" fill="none" fill-rule="evenodd" sketch:type="MSPage">
        <g id="logo" sketch:type="MSLayerGroup">
            <g id="Group">
                <g id="SVGID_1_-link" fill="#103184" sketch:type="MSShapeGroup">
                    <rect id="SVGID_1_" x="0" y="0" width="33.833" height="33.833"></rect>
                </g>
                <g id="Clipped">
                    <mask id="mask-2" sketch:name="SVGID_1_" fill="white">
                        <use xlink:href="#path-1"></use>
                    </mask>
                    <g id="SVGID_1_"></g>
                    <g id="Group" mask="url(#mask-2)" sketch:type="MSShapeGroup">
                        <path d="M20.971,16.706 L33.837,0 L31.937,0 L19.027,16.706 L20.971,16.706 Z" id="Shape" fill="#FF1821"></path>
                        <path d="M25.854,24.018 C26.444,25.667 27.659,29.96 28.141,30.302 L24.953,30.302 C24.953,30.302 24.941,29.667 24.803,29.176 C24.665,28.687 23.512,24.974 23.512,24.974 L18.445,24.974 L17.648,26.104 C17.648,26.104 18.606,29.099 18.665,29.246 C18.769,29.51 19.226,30.303 19.226,30.303 L16.169,30.303 C16.169,30.303 16.089,29.846 16.06,29.655 C16.036,29.503 15.77,28.66 15.77,28.66 C15.77,28.66 15.078,29.419 14.888,29.77 C14.698,30.122 14.613,30.303 14.613,30.303 L12.22,30.303 C12.22,30.303 12.14,29.846 12.111,29.655 C12.088,29.503 11.795,28.592 11.795,28.592 C11.795,28.592 11.125,29.405 10.936,29.756 C10.746,30.108 10.665,30.303 10.665,30.303 L8.298,30.303 C8.298,30.303 8.966,29.668 9.199,29.394 C9.593,28.931 11.061,27.012 11.061,27.012 L10.473,24.975 L5.444,24.975 C5.444,24.975 2.577,28.743 2.464,28.859 C2.351,28.973 1.515,30.174 1.495,30.303 L0.004,30.303 L0.004,29.355 C0.032,29.325 0.054,29.305 0.064,29.297 C0.109,29.264 2.237,26.623 4.192,24.019 C5.948,21.748 7.595,19.54 7.741,19.329 C8.091,18.82 8.595,17.722 8.595,17.722 L11.195,17.722 C11.195,17.722 11.275,18.733 11.351,18.978 C11.418,19.194 13.001,24.391 13.039,24.447 L13.915,23.326 L12.418,18.718 C12.418,18.718 12.067,17.851 11.953,17.721 L14.989,17.721 C14.989,17.721 14.966,18.167 15.089,18.546 C15.212,18.927 15.863,21.276 15.863,21.276 C15.863,21.276 17.934,18.68 18.055,18.493 C18.283,18.18 18.311,17.721 18.311,17.721 L20.84,17.721 C20.84,17.721 20.377,18.059 19.567,19.087 C19.294,19.432 16.622,22.828 16.622,22.828 C16.622,22.828 16.855,23.623 16.969,24.018 C16.999,24.132 17.022,24.207 17.022,24.216 C17.022,24.22 17.081,24.148 17.181,24.018 C17.87,23.145 21.006,19.032 21.197,18.68 C21.35,18.396 21.576,18.073 21.709,17.721 L24.177,17.721 C24.177,17.721 24.235,18.458 24.31,18.661 L25.854,24.018 L25.854,24.018 Z M22.099,20.126 C21.735,20.906 19.602,23.503 19.602,23.503 L22.98,23.503 C22.98,23.503 22.326,21.485 22.211,21.031 C22.12,20.669 22.145,20.203 22.145,20.147 C22.145,20.107 22.138,20.04 22.099,20.126 L22.099,20.126 Z M9.115,20.126 C8.753,20.906 6.62,23.503 6.62,23.503 L9.999,23.503 C9.999,23.503 9.344,21.485 9.229,21.031 C9.139,20.669 9.163,20.203 9.163,20.147 C9.163,20.107 9.155,20.04 9.115,20.126 L9.115,20.126 Z M14.202,28.001 L15.132,26.724 C15.046,26.632 14.523,25.042 14.523,25.042 L13.624,26.208 L14.202,28.001 L14.202,28.001 Z" id="Shape" fill="#FFFFFF"></path>
                    </g>
                </g>
            </g>
            <path d="M0.004,36.472 L155.909,36.472 L155.909,37.128 L0.004,37.128 L0.004,36.472 L0.004,36.472 Z" id="Shape" fill="#FF1821" sketch:type="MSShapeGroup"></path>
            <g id="Group" transform="translate(37.000000, 14.000000)" fill="#103184" sketch:type="MSShapeGroup">
                <path d="M12.785,16.303 L9.859,16.303 L9.233,7.049 L4.131,16.303 L1.205,16.303 L-0.197,3.748 L2.881,3.748 L3.48,12.777 L8.559,3.748 L11.635,3.748 L12.26,12.751 L17.088,3.748 L20.039,3.748 L12.785,16.303 L12.785,16.303 Z" id="Shape"></path>
                <path d="M22.264,16.303 L19.188,16.303 L21.866,3.748 L24.916,3.748 L22.264,16.303 L22.264,16.303 Z M25.217,2.547 L22.066,2.547 L22.641,-0.105 L25.791,-0.105 L25.217,2.547 L25.217,2.547 Z" id="Shape"></path>
                <path d="M38.173,9.201 L36.672,16.304 L33.595,16.304 L35.097,9.352 C35.219,8.776 35.371,7.952 35.371,7.3 C35.371,6.574 35.045,5.948 34.045,5.948 C32.469,5.948 30.943,7.649 30.094,9.252 C29.668,10.075 29.393,11.102 29.194,12.026 L28.268,16.303 L25.192,16.303 L27.867,3.748 L30.893,3.748 L30.419,5.975 C31.118,5.023 32.595,3.373 35.219,3.373 C37.397,3.373 38.547,4.523 38.547,6.375 C38.547,7.25 38.372,8.2 38.173,9.201 L38.173,9.201 L38.173,9.201 Z" id="Shape"></path>
                <path d="M48.229,5.948 L45.375,5.948 L43.974,12.551 C43.901,12.877 43.824,13.356 43.85,13.628 C43.901,14.255 44.426,14.504 45.123,14.504 C45.676,14.504 46.275,14.379 46.751,14.279 L46.35,16.179 C45.852,16.378 44.8,16.554 43.951,16.554 C41.899,16.554 40.722,15.702 40.722,14.052 C40.722,13.627 40.823,12.876 40.95,12.277 L42.3,5.948 L39.972,5.948 L40.449,3.748 L42.775,3.748 L43.601,-0.105 L46.677,-0.105 L45.853,3.748 L48.73,3.748 L48.229,5.948 L48.229,5.948 Z" id="Shape"></path>
                <path d="M59.883,10.751 L51.73,10.751 C51.676,11.051 51.653,11.401 51.653,11.7 C51.653,13.452 52.805,14.302 54.755,14.302 C56.308,14.302 57.757,13.952 58.982,13.477 L58.483,15.779 C57.986,16.103 56.283,16.678 54.106,16.678 C49.927,16.678 48.354,14.453 48.354,11.501 C48.354,7.349 51.153,3.372 55.681,3.372 C58.558,3.372 60.535,4.723 60.535,7.624 C60.534,8.824 60.207,9.901 59.883,10.751 L59.883,10.751 L59.883,10.751 Z M55.529,5.423 C53.656,5.423 52.453,7.276 52.101,8.675 L57.306,8.675 C57.357,8.55 57.581,8.05 57.581,7.224 C57.582,6.298 57.082,5.423 55.529,5.423 L55.529,5.423 L55.529,5.423 Z" id="Shape"></path>
                <path d="M70.736,6.625 C70.612,6.599 70.386,6.549 69.961,6.549 C68.436,6.549 66.937,7.875 66.234,9.175 C65.711,10.151 65.459,11.226 65.259,12.202 L64.383,16.303 L61.308,16.303 L63.984,3.748 L66.984,3.748 L66.462,6.223 C67.136,5.098 68.485,3.698 70.537,3.698 C70.963,3.698 71.238,3.721 71.336,3.748 L70.736,6.625 L70.736,6.625 Z" id="Shape"></path>
                <path d="M80.09,5.948 L77.242,5.948 L75.84,12.551 C75.766,12.877 75.69,13.356 75.715,13.628 C75.766,14.255 76.29,14.504 76.99,14.504 C77.541,14.504 78.139,14.379 78.616,14.279 L78.217,16.179 C77.717,16.378 76.666,16.554 75.816,16.554 C73.762,16.554 72.59,15.702 72.59,14.052 C72.59,13.627 72.689,12.876 72.813,12.277 L74.165,5.948 L71.84,5.948 L72.316,3.748 L74.64,3.748 L75.464,-0.105 L78.543,-0.105 L77.718,3.748 L80.595,3.748 L80.09,5.948 L80.09,5.948 Z" id="Shape"></path>
                <path d="M93.021,9.201 L91.522,16.304 L88.447,16.304 L89.945,9.375 C90.074,8.801 90.221,7.977 90.221,7.325 C90.221,6.599 89.896,5.975 88.896,5.975 C87.317,5.975 85.793,7.675 84.945,9.277 C84.517,10.1 84.244,11.127 84.045,12.052 L83.117,16.303 L80.042,16.303 L83.494,-0.105 L86.517,-0.105 L85.27,5.975 C85.97,5.023 87.621,3.373 90.044,3.373 C92.245,3.373 93.398,4.523 93.398,6.375 C93.398,7.25 93.223,8.2 93.021,9.201 L93.021,9.201 L93.021,9.201 Z" id="Shape"></path>
                <path d="M105.877,16.303 L102.852,16.303 L103.329,14.103 C102.427,15.254 101.077,16.678 98.552,16.678 C96.351,16.678 95.198,15.552 95.198,13.677 C95.198,12.804 95.374,11.851 95.573,10.851 L97.077,3.748 L100.151,3.748 L98.651,10.725 C98.551,11.126 98.378,12.052 98.378,12.751 C98.378,13.552 98.677,14.128 99.702,14.128 C101.253,14.128 102.903,12.451 103.681,10.827 C104.13,9.875 104.38,9.025 104.579,8.05 L105.479,3.748 L108.557,3.748 L105.877,16.303 L105.877,16.303 Z" id="Shape"></path>
                <path d="M118.26,6.625 C118.135,6.599 117.908,6.549 117.483,6.549 C115.96,6.549 114.458,7.875 113.758,9.175 C113.235,10.151 112.983,11.226 112.783,12.202 L111.904,16.303 L108.832,16.303 L111.508,3.748 L114.506,3.748 L113.983,6.223 C114.659,5.098 116.01,3.698 118.061,3.698 C118.487,3.698 118.758,3.721 118.862,3.748 L118.26,6.625 L118.26,6.625 Z" id="Shape"></path>
            </g>
        </g>
    </g>
</svg>
